**kern
*staff1
*solos[solo1,solo1]
=1-
*clefG2
*k[]
*F:
*M4/4
1r
=2
1r
=3
1r
=4
1r
=5
*>head1
{4G/
8r
8c/
4.A/
8B-/
=6
6c/
6A/
6B-/
6d-/
4a/
12g/
=7
8e/L
8g/
8f/
8c/J
8B-/L
8d/
8c/
8c/J
=8
8r
16A/LL
16B-/J
8c/
8d/J
8e-/L
8f/
8d/
8A/J
=9
8c/L
8F/
8G/
8A-/J}
4r
8r
{8F/
=10
8G/L
8F/
8B-/
8A/J
8c/L
8B-/
8e-/
8c/J}
=11
4r
8r
{8c/
2c/
=12
8r
4c/
8A/
8B-/L
8A/
8c/
8B-/J
=13
8A/L
8F/
8G/
8A/J
4c/}
8r
{16B-/LL
16c/JJ
=14
8d-/L
[8a/J
2a/]
4g/
=15
8r
8E/L
8F/
8G/J
8A/L
8G/
8F/
8E/J
=16
8r
8E/L
8F/
8G/J
8A/L
8G/
8F/
8E/J
*>solo1
=17
[4F/
8F/]
32A/LLL
32c/
32d/
32f/JJJ
8d/L
8A/
8B-/
[8c/J
=18:|!
8c/L]
8A/J
16B-/LL
16d/
16f/
16a/JJ
8a-/L
16e/L
16c/J
8B-/
8c/J}
=19
{[4F/
8F/]
32A/LLL
32c/
32d/
32f/JJJ
4d/}
4r
=20
8r
{16c/LL
16e-/J
8g/
8b-/J
8dd\L
8dd-\
8cc\
8bn\J
=21
8b-/L
8f/
8g/
[8a-/J
2a-/]}
=22
1r
=23
4r
8r
{16a/LL
16b-/JJ
8cc\L
16ff\L
16ee\J
8dd\
16a\L
16b-\JJ
=24
8cc\
8r
16ee-\LL
16dd\
16cc\
16b-\JJ
16a/LL
16g/
16f#/
16g/JJ
4a/}
=25
4r
{16f#/LL
16g/
16b-/
16dd/JJ
16ff\LL
16dd\
16ee-\
16een\JJ
16cc\LL
16cc#\
16dd\
16ccn\JJ
=26
16b-/LL
16a/
16g/
16f/JJ
16e/LL
16G/
16B-/
16d-/JJ
16c/LL
16B-/
16A/
16c/JJ
16e-/LL
16en/
16g/
16e/JJ
=27
16f/LL
16g/
16a/
16b-/JJ
16cc\LL
16b-\
16a\
16cc\JJ
16g/LL
16a/
16b-/
16dd/JJ
16a-\LL
16bn\
16ee\
16dd\JJ
=28
4cc\}
4r
8r
{8a/
24b-\LL
24cc\
24b-\JJ
8a/
=29
4f/
8r
[8c/
2c/_
=30||
8c/L]
16d/L
16e/J
8f/
8g/J
8a/L
8e/
8f/
8g/J
*>solo2
=31
4f/}
8r
{8B/
4.c/
8B-/
=32
16A/LL
16c/
16e-/
16g/J
8dd/
[8cc/J
2cc\]}
=33
2r
4r
8r
{24f/LL
24f/
24f/JJ
=34
6r
6b\
6b-\
24a-/LL
24b-/
24a-/JJ
8f/
12e-/L
12c/
12B-/J
=35
8G#/L
8A/
8F/
8G#/J
2A/}
=36
8r
{16A/LL
16c/J
8e/
8g/J
8g-/L
8e-/
8B/
8A-/J
=37
8F#/L
8G/
8B-/
8d/J
8f/L
8d/
8e/
[8cc/J
=38
8cc\]}
8r
8r
{8c/
8a-/L
16e/L
16c/J
8B-/
8c/J
=39
4g/
4cc\
8r
8g/
[4a-/
=40
4a-/]
4cc\
8r
8c/
[4an/
=41
4a/]
4cc\}
2r
==
*-
